X: 12496
T: Farewell To Erin
R: reel
M: 4/4
K: Dmajor
|:D2FE FAA/A/A|F'E'D'F' E'BB2|D'BAF GFGB|AGFD EDCE|
D2FD FAA/A/A|F'E'D'F' E'BB2|D'BAF GBD'B|AFEG FDD2:|
|:D'E'F'G' A'F'D'F'|G'/F'/E'F'D' E'BB2|D'C'D'F' A'F'D'F'|G'/F'/E'F'D' E'G'F'E'|
D'E'F'G' A'F'D'F'|G'/F'/E'F'D' E'BB2|D'BAF GBD'B|AFEG FDD2:|

